dist/assets/toolkit/images/transporti.svg

<?xml version="1.0" encoding="UTF-8"?>
<svg width="55px" height="32px" viewBox="0 0 55 32" version="1.1" xmlns="http://www.w3.org/2000/svg" xmlns:xlink="http://www.w3.org/1999/xlink">
    <!-- Generator: sketchtool 42 (36781) - http://www.bohemiancoding.com/sketch -->
    <title>95F01287-9575-4685-8884-2CB22A88D90F</title>
    <desc>Created with sketchtool.</desc>
    <defs></defs>
    <g id="Page-1" stroke="none" stroke-width="1" fill="none" fill-rule="evenodd">
        <g id="Show-page" transform="translate(-832.000000, -685.000000)" fill="#7F98F6">
            <g id="Transport" transform="translate(832.000000, 685.000000)">
                <g id="Transporti">
                    <path d="M12.1744302,21.1521789 C9.35626781,21.1521789 7.07212251,23.4766485 7.07212251,26.3462223 C7.07212251,29.215796 9.35611111,31.5402656 12.1744302,31.5402656 C14.9936895,31.5402656 17.2770513,29.2159556 17.2770513,26.3462223 C17.2770513,23.476489 14.9936895,21.1521789 12.1744302,21.1521789 L12.1744302,21.1521789 Z M12.1744302,28.6041691 C10.9493875,28.6041691 9.95672365,27.5937243 9.95672365,26.3462223 C9.95672365,25.0984012 10.9493875,24.0882755 12.1744302,24.0882755 C13.3996296,24.0882755 14.3930769,25.0984012 14.3930769,26.3462223 C14.3930769,27.5937243 13.3996296,28.6041691 12.1744302,28.6041691 L12.1744302,28.6041691 Z" id="Shape"></path>
                    <path d="M42.1281197,21.1521789 C39.3098006,21.1521789 37.0259687,23.4766485 37.0259687,26.3462223 C37.0259687,29.215796 39.3096439,31.5402656 42.1281197,31.5402656 C44.9473789,31.5402656 47.2307407,29.2159556 47.2307407,26.3462223 C47.2307407,23.476489 44.9473789,21.1521789 42.1281197,21.1521789 L42.1281197,21.1521789 Z M42.1281197,28.6041691 C40.9030769,28.6041691 39.9102564,27.5937243 39.9102564,26.3462223 C39.9102564,25.0984012 40.9030769,24.0882755 42.1281197,24.0882755 C43.3534758,24.0882755 44.3469231,25.0984012 44.3469231,26.3462223 C44.3469231,27.5937243 43.3534758,28.6041691 42.1281197,28.6041691 L42.1281197,28.6041691 Z" id="Shape"></path>
                    <path d="M51.8657835,0.118209593 L6.09779202,0.118209593 C4.42099715,0.118209593 2.77475783,1.48679272 2.4392735,3.15943453 L0.60985755,9.95816117 C0.274373219,11.630803 0,14.396046 0,16.1033052 L0,23.2423032 C0,24.9492433 1.37202279,26.3460627 3.04881766,26.3460627 L6.15749288,26.3460627 C6.15749288,22.9688737 8.85672365,20.2210191 12.1742735,20.2210191 C15.4921368,20.2210191 18.1915242,22.9685546 18.1915242,26.3460627 L36.1108689,26.3460627 C36.1108689,22.9688737 38.8102564,20.2210191 42.1276496,20.2210191 C45.4458262,20.2210191 48.145057,22.9685546 48.145057,26.3460627 L51.865,26.3460627 C53.5421083,26.3460627 54.9138177,24.9495624 54.9138177,23.2423032 L54.9138177,3.22196916 C54.9146011,1.51486949 53.5425783,0.118209593 51.8657835,0.118209593 L51.8657835,0.118209593 Z M12.6697436,13.2145882 L5.5645584,13.2145882 L6.6905698,10.4995962 C6.88706553,10.0258007 6.66910256,9.47957982 6.20387464,9.27953281 C5.73817664,9.07948581 5.20180912,9.30154756 5.00562678,9.77518356 L3.60947293,13.1416843 C2.66695157,12.8894719 2.0932906,11.9908557 2.2874359,10.9258527 L3.92646724,4.26719083 C4.15602564,3.00836235 5.37276353,1.97829577 6.63039886,1.97829577 L12.6699003,1.97829577 L12.6697436,13.2145882 L12.6697436,13.2145882 L12.6697436,13.2145882 Z M26.2368803,13.2145882 L14.4990028,13.2145882 L14.4990028,1.97829577 L26.2368803,1.97829577 L26.2368803,13.2145882 L26.2368803,13.2145882 Z M39.8038604,13.2145882 L28.0661396,13.2145882 L28.0661396,1.97829577 L39.8038604,1.97829577 L39.8038604,13.2145882 L39.8038604,13.2145882 Z M53.0449145,10.8867685 C53.0449145,12.1671331 52.0160541,13.2147477 50.7581054,13.2147477 L41.6331197,13.2147477 L41.6331197,1.97845529 L50.7581054,1.97845529 C52.0158974,1.97845529 53.0449145,3.02606986 53.0449145,4.3064345 L53.0449145,10.8867685 L53.0449145,10.8867685 Z" id="Shape"></path>
                </g>
            </g>
        </g>
    </g>
</svg>

<svg width="55" height="32" viewBox="0 0 55 32" xmlns="http://www.w3.org/2000/svg"><title>95F01287-9575-4685-8884-2CB22A88D90F</title><g fill="#7F98F6" fill-rule="evenodd"><path d="M12.174 21.152c-2.818 0-5.102 2.325-5.102 5.194 0 2.87 2.284 5.194 5.102 5.194 2.82 0 5.103-2.324 5.103-5.194s-2.283-5.194-5.103-5.194zm0 7.452c-1.225 0-2.217-1.01-2.217-2.258s.992-2.258 2.217-2.258c1.226 0 2.22 1.01 2.22 2.258s-.994 2.258-2.22 2.258zM42.128 21.152c-2.818 0-5.102 2.325-5.102 5.194 0 2.87 2.284 5.194 5.102 5.194 2.82 0 5.103-2.324 5.103-5.194s-2.284-5.194-5.103-5.194zm0 7.452c-1.225 0-2.218-1.01-2.218-2.258s.993-2.258 2.218-2.258 2.219 1.01 2.219 2.258-.994 2.258-2.219 2.258z"/><path d="M51.866.118H6.098C4.42.118 2.775 1.487 2.439 3.16L.61 9.96C.275 11.63 0 14.395 0 16.102v7.14c0 1.706 1.372 3.103 3.049 3.103h3.108c0-3.377 2.7-6.125 6.017-6.125 3.318 0 6.018 2.748 6.018 6.125H36.11c0-3.377 2.7-6.125 6.017-6.125 3.318 0 6.017 2.748 6.017 6.125h3.72c1.677 0 3.049-1.396 3.049-3.104V3.222c0-1.707-1.371-3.104-3.048-3.104zM12.67 13.215H5.565L6.69 10.5a.937.937 0 0 0-.487-1.22.909.909 0 0 0-1.198.495l-1.397 3.367c-.942-.253-1.516-1.151-1.322-2.216l1.64-6.659c.229-1.259 1.446-2.289 2.703-2.289h6.04v11.237zm13.567 0H14.499V1.978h11.738v11.237zm13.567 0H28.066V1.978h11.738v11.237zm13.24-2.328c0 1.28-1.028 2.328-2.286 2.328h-9.125V1.978h9.125c1.258 0 2.287 1.048 2.287 2.328v6.58z"/></g></svg>
